X: 8284
T: Corner House, The
R: reel
M: 4/4
K: Adorian
|:EAAG ABcd|e2dB cBAG|EGGF G2AB|cABG AGED|
EAAG ABcd|eaag efge|d2 (3Bcd efge|1 dBGB A2AG:|2 dBGB A2 (3Bcd||
|:eaag a2ga|bgab gedB|d2 (3Bcd ed (3Bcd|egfa gedB|
eaag a2ga|bgab gedB|d2 (3Bcd efge|1 dBGB A2 (3Bcd:|2 dBGB A3G||

